_uploads/logo__topshop.svg

<svg enable-background="new 0 0 295.1 24.2" viewBox="0 0 295.1 24.2" xmlns="http://www.w3.org/2000/svg"><g fill="#8a8a8a"><path d="m12.1 5v18.3h-4.7v-18.3h-7.1v-4.4h19.1v4.4z"/><path d="m53.7 4.6c-3.4 0-5.7 2.7-5.7 7.2s2.5 7.2 5.7 7.2 5.7-2.7 5.7-7.2c.2-4.6-2.3-7.2-5.7-7.2m.2 18.8c-6.5 0-10.7-4.4-10.7-11.6s4.4-11.6 10.9-11.6c6.3 0 10.7 4.4 10.7 11.6s-4.6 11.6-10.9 11.6"/><path d="m101.7 4.8h-5.5v5.7h5.7c2.3 0 3.4-1 3.4-3.1-.2-1.7-1.5-2.6-3.6-2.6m-.2 10.3h-5.3v8h-5v-22.5h10.7c4.6 0 8.4 2.3 8.4 7.1 0 5.3-3.8 7.4-8.8 7.4"/><path d="m144.6 23.4c-4 0-7.6-1.5-9.5-4.2l3.6-2.9c1.7 1.9 3.8 2.7 6.3 2.7 2.9 0 4.2-.8 4.2-2.5 0-1.5-1-2.1-5.3-3.1-4.6-1-7.6-2.3-7.6-6.9 0-4.2 4-6.7 8.8-6.7 3.8 0 6.7 1.3 9 3.6l-3.6 3.2c-1.5-1.5-3.2-2.3-5.5-2.3-2.7 0-3.4 1.1-3.4 2.1 0 1.5 1.1 1.9 5 2.7 3.8 1 8.2 2.1 8.2 7.1-.7 4.4-3.5 7.2-10.2 7.2"/><path d="m195.9 23.1v-9.5h-9.9v9.5h-5v-22.5h5v8.6h9.9v-8.6h5v22.7h-5z"/><path d="m238.2 4.6c-3.4 0-5.7 2.7-5.7 7.2s2.5 7.2 5.7 7.2c3.4 0 5.7-2.7 5.7-7.2s-2.3-7.2-5.7-7.2m0 18.8c-6.5 0-10.7-4.4-10.7-11.6s4.4-11.6 10.9-11.6 10.7 4.4 10.7 11.6-4.6 11.6-10.9 11.6"/><path d="m286.1 4.8h-5.5v5.7h5.7c2.3 0 3.4-1 3.4-3.1 0-1.7-1.5-2.6-3.6-2.6m-.2 10.3h-5.3v8h-5v-22.5h10.7c4.6 0 8.4 2.3 8.4 7.2-.1 5.2-3.7 7.3-8.8 7.3"/></g></svg>

<?xml version="1.0" encoding="utf-8"?>
<!-- Generator: Adobe Illustrator 23.0.1, SVG Export Plug-In . SVG Version: 6.00 Build 0)  -->
<svg version="1.1" id="Layer_1" xmlns="http://www.w3.org/2000/svg" xmlns:xlink="http://www.w3.org/1999/xlink" x="0px" y="0px"
	 viewBox="0 0 295.1 24.2" style="enable-background:new 0 0 295.1 24.2;" xml:space="preserve">
<style type="text/css">
	.st0{fill:#8A8A8A;}
</style>
<g>
	<path class="st0" d="M12.1,5v18.3H7.4V5H0.3V0.6h19.1V5H12.1z"/>
	<path class="st0" d="M53.7,4.6c-3.4,0-5.7,2.7-5.7,7.2s2.5,7.2,5.7,7.2s5.7-2.7,5.7-7.2C59.6,7.2,57.1,4.6,53.7,4.6 M53.9,23.4
		c-6.5,0-10.7-4.4-10.7-11.6S47.6,0.2,54.1,0.2c6.3,0,10.7,4.4,10.7,11.6S60.2,23.4,53.9,23.4"/>
	<path class="st0" d="M101.7,4.8h-5.5v5.7h5.7c2.3,0,3.4-1,3.4-3.1C105.1,5.7,103.8,4.8,101.7,4.8 M101.5,15.1h-5.3v8h-5V0.6h10.7
		c4.6,0,8.4,2.3,8.4,7.1C110.3,13,106.5,15.1,101.5,15.1"/>
	<path class="st0" d="M144.6,23.4c-4,0-7.6-1.5-9.5-4.2l3.6-2.9c1.7,1.9,3.8,2.7,6.3,2.7c2.9,0,4.2-0.8,4.2-2.5c0-1.5-1-2.1-5.3-3.1
		c-4.6-1-7.6-2.3-7.6-6.9c0-4.2,4-6.7,8.8-6.7c3.8,0,6.7,1.3,9,3.6l-3.6,3.2c-1.5-1.5-3.2-2.3-5.5-2.3c-2.7,0-3.4,1.1-3.4,2.1
		c0,1.5,1.1,1.9,5,2.7c3.8,1,8.2,2.1,8.2,7.1C154.1,20.6,151.3,23.4,144.6,23.4"/>
	<path class="st0" d="M195.9,23.1v-9.5H186v9.5h-5V0.6h5v8.6h9.9V0.6h5v22.7h-5V23.1z"/>
	<path class="st0" d="M238.2,4.6c-3.4,0-5.7,2.7-5.7,7.2s2.5,7.2,5.7,7.2c3.4,0,5.7-2.7,5.7-7.2S241.6,4.6,238.2,4.6 M238.2,23.4
		c-6.5,0-10.7-4.4-10.7-11.6s4.4-11.6,10.9-11.6c6.5,0,10.7,4.4,10.7,11.6S244.5,23.4,238.2,23.4"/>
	<path class="st0" d="M286.1,4.8h-5.5v5.7h5.7c2.3,0,3.4-1,3.4-3.1C289.7,5.7,288.2,4.8,286.1,4.8 M285.9,15.1h-5.3v8h-5V0.6h10.7
		c4.6,0,8.4,2.3,8.4,7.2C294.6,13,291,15.1,285.9,15.1"/>
</g>
</svg>
